icon/favicon.svg

<svg width="59" height="32" viewBox="0 0 59 32" fill="none" xmlns="http://www.w3.org/2000/svg">
<path d="M30.6507 24.9669C30.4826 25.1135 30.3058 25.2516 30.1473 25.4066C28.5767 26.9489 27.004 28.4869 25.4452 30.044C25.1456 30.3435 24.8804 30.4572 24.4481 30.2915C18.6271 28.0716 15.1313 23.9547 14.2819 17.8643C13.1716 9.93219 18.8524 2.51308 26.8779 1.18858C28.4658 0.92811 30.0846 0.906265 31.6791 1.12379C31.6964 1.3564 31.512 1.43287 31.3988 1.54333C30.2605 2.67028 29.1125 3.78447 27.986 4.92203C27.7578 5.15071 27.4653 5.30682 27.1463 5.37026C22.552 6.45577 19.6631 9.27153 18.57 13.7814C17.5028 18.1819 19.6577 23.0221 23.5825 25.3365C23.865 25.5033 24.0299 25.4789 24.2379 25.2494C24.584 24.8681 24.9569 24.5059 25.3159 24.1448C25.3719 23.8846 25.6166 23.7805 25.7827 23.6137C27.5548 21.8591 29.3306 20.1083 31.1099 18.3614C31.199 18.2801 31.2822 18.1928 31.359 18.1001C31.4851 17.9355 31.636 17.7528 31.4549 17.5542C31.2738 17.3555 31.0744 17.4703 30.9019 17.6009C30.6863 17.7677 30.4653 17.9355 30.2551 18.1203C29.6325 18.6669 28.9198 19.1047 28.1477 19.4151C25.9799 20.3328 23.8585 19.2579 22.7902 17.5956C21.6745 15.8579 22.0615 14.2073 23.1136 12.6109C23.4621 12.1006 23.8659 11.6291 24.3177 11.2046C25.539 10.0182 26.7474 8.81906 27.958 7.62201C28.1355 7.43516 28.3391 7.27422 28.5627 7.14405C30.2648 5.46585 31.9777 3.79934 33.6593 2.10203C34.0043 1.75364 34.2835 1.7016 34.7373 1.87897C40.1088 3.99478 43.4774 7.80789 44.5252 13.4139C46.112 21.9015 40.1152 29.7073 31.788 30.9234C30.4036 31.1444 28.9939 31.1655 27.6033 30.9861C27.5473 30.8002 27.7047 30.7365 27.7931 30.6494C29.0399 29.4152 30.2885 28.1827 31.539 26.9521C31.7086 26.7823 31.9222 26.6618 32.1566 26.6037C36.6302 25.4258 39.8749 21.9228 40.3923 17.4023C40.9119 12.9274 39.1666 9.38306 35.3701 6.8339C35.1469 6.68414 34.9971 6.66714 34.803 6.8817C34.4355 7.28744 34.0388 7.66875 33.6539 8.06068C33.5742 8.4473 33.2486 8.65336 32.9824 8.88066C31.6565 10.0108 30.4826 11.2917 29.2278 12.492C28.6888 13.0039 28.1585 13.5159 27.654 14.0544C27.4535 14.2668 27.1085 14.5494 27.391 14.834C27.6734 15.1187 27.9612 14.7798 28.1757 14.5844C28.8807 13.9471 29.6331 13.3789 30.5084 12.9784C33.2033 11.7495 35.5749 13.244 36.4954 15.3831C36.9547 16.4453 36.8803 17.5542 36.4254 18.6216C36.025 19.5517 35.4463 20.3971 34.7211 21.1113C33.5612 22.2595 32.3938 23.4034 31.2318 24.5484C31.0674 24.7236 30.8701 24.8658 30.6507 24.9669Z" fill="#24B8FE"/>
<path d="M5.44582 1.49987C6.47959 1.51049 7.08433 2.54608 6.57445 3.48396C5.75735 4.99009 5.03081 6.53233 4.52093 8.16591C2.33482 15.1761 2.9895 21.92 6.48498 28.3977C6.96683 29.2889 6.75878 30.1407 5.96001 30.4732C5.26688 30.7621 4.59208 30.5061 4.17814 29.7732C2.91648 27.556 1.97737 25.1751 1.38837 22.7004C-0.282474 15.5988 0.627327 8.83117 4.11777 2.39738C4.40774 1.861 4.78827 1.49243 5.44582 1.49987Z" fill="#24B8FE"/>
<path d="M58.2714 14.9402C58.2574 20.8808 57.0748 25.4056 54.7508 29.6425C54.3983 30.2798 53.8819 30.5761 53.2901 30.4922C53.0049 30.4515 52.7401 30.3228 52.5339 30.1245C52.3276 29.9262 52.1904 29.6686 52.1421 29.3887C52.0699 29.0127 52.2132 28.6908 52.3911 28.3701C53.8784 25.7238 54.8647 22.833 55.3016 19.8389C56.1133 14.1967 55.1863 8.83819 52.4396 3.80042C52.2413 3.43716 52.0472 3.07603 52.1518 2.63843C52.2822 2.09461 52.6811 1.69311 53.1856 1.6092C53.841 1.50299 54.3357 1.71542 54.671 2.29854C55.4597 3.68163 56.121 5.1316 56.6469 6.63104C57.7205 9.68578 58.2897 12.8244 58.2714 14.9402Z" fill="#24B8FE"/>
<path d="M9.31573 3.64753C10.3808 3.64753 10.9769 4.69481 10.439 5.66562C9.55463 7.23119 8.87582 8.90117 8.41887 10.6354C7.05344 15.9462 7.63878 21.0445 10.1749 25.9304C10.2697 26.1131 10.3764 26.2894 10.4692 26.4721C10.8238 27.1816 10.6136 27.9389 9.96682 28.2915C9.2877 28.6612 8.50941 28.4349 8.1041 27.7254C7.24844 26.2414 6.5695 24.665 6.08076 23.0275C4.1857 16.6093 4.82314 10.4478 7.99307 4.54292C8.27981 4.00866 8.65278 3.62523 9.31573 3.64753Z" fill="#24B8FE"/>
<path d="M53.8378 16.0002C53.7903 20.1224 52.8331 23.9387 50.868 27.5012C50.4206 28.3126 49.6337 28.5867 48.9212 28.1863C48.2399 27.8039 48.0771 27.0232 48.5148 26.2245C50.2368 23.11 51.1416 19.6208 51.1468 16.0741C51.1521 12.5274 50.2577 9.03563 48.545 5.91617C48.3294 5.53061 48.1731 5.14398 48.2917 4.70001C48.3551 4.45005 48.4939 4.22491 48.6898 4.05425C48.8857 3.8836 49.1295 3.77545 49.389 3.74407C50.0013 3.67185 50.4734 3.88852 50.7807 4.42597C51.6742 6.0045 52.3792 7.6797 52.8816 9.41807C53.501 11.5594 53.8226 13.7737 53.8378 16.0002V16.0002Z" fill="#24B8FE"/>
<path d="M28.5746 7.14303C27.0935 8.63004 25.6131 10.1149 24.1334 11.5977C23.2861 12.4527 22.6124 13.4182 22.3612 14.6089C22.0012 16.3168 22.6846 17.6477 23.9965 18.7056C25.2491 19.7157 26.6483 19.8686 28.1391 19.2791C29.1524 18.8787 30.0007 18.2372 30.7812 17.5C31.0183 17.2759 31.2824 17.1495 31.5584 17.3938C31.8344 17.6381 31.7373 17.9313 31.5077 18.1554C29.5063 20.1175 27.4999 22.0754 25.4884 24.0291C25.4353 24.072 25.3782 24.1101 25.3181 24.1427C23.1524 22.9744 21.5872 21.2994 20.7831 18.9786C18.9344 13.6423 22.4895 7.9492 28.1596 7.16002C28.2975 7.14689 28.436 7.14122 28.5746 7.14303V7.14303Z" fill="#222222"/>
<path d="M30.6508 24.967C32.0025 23.6233 33.364 22.2882 34.7017 20.9308C35.6827 19.9345 36.3877 18.7948 36.6259 17.3875C37.083 14.7002 34.0388 11.5775 30.7338 13.0178C29.7862 13.4309 28.9745 14.0279 28.221 14.7172C27.9461 14.9679 27.6281 15.3428 27.2573 14.9764C26.8865 14.6099 27.2638 14.2817 27.5247 14.0268C29.5652 12.0342 31.5476 9.98427 33.6561 8.05859C35.3701 9.01453 36.738 10.2965 37.6262 12.0417C40.361 17.414 37.07 23.8846 31.0636 24.9457C30.9265 24.9608 30.7887 24.9679 30.6508 24.967V24.967Z" fill="#222222"/>
<path d="M9.45367 16.0746C9.48601 12.6598 10.2977 9.50417 11.933 6.56096C12.2779 5.94385 12.7274 5.71124 13.3742 5.78559C13.6425 5.81933 13.8936 5.93384 14.0933 6.1135C14.293 6.29315 14.4315 6.52917 14.4899 6.78932C14.588 7.16213 14.477 7.49671 14.2991 7.81854C12.8944 10.3216 12.1536 13.1335 12.1453 15.9938C12.137 18.854 12.8615 21.67 14.2517 24.1809C14.6969 24.9946 14.5276 25.7922 13.8205 26.1682C13.1134 26.5442 12.3609 26.2681 11.9157 25.4715C10.3088 22.592 9.46215 19.3607 9.45367 16.0746Z" fill="#24B8FE"/>
<path d="M49.3976 15.5839C49.375 19.3248 48.5902 22.4496 46.9937 25.3727C46.5992 26.097 45.9567 26.3838 45.2787 26.1533C44.4821 25.8825 44.1512 25.0041 44.5791 24.2149C45.4401 22.6565 46.051 20.9761 46.3901 19.2334C47.1382 15.2872 46.5561 11.5403 44.6438 7.99271C44.1803 7.13024 44.4034 6.28584 45.1828 5.95445C45.496 5.82054 45.8492 5.80891 46.1708 5.92191C46.4924 6.0349 46.7585 6.26408 46.915 6.56306C48.0839 8.63709 48.8552 10.9054 49.1906 13.2546C49.3232 14.1691 49.4138 15.0857 49.3976 15.5839Z" fill="#24B8FE"/>
</svg>

<?xml version="1.0" encoding="UTF-8"?>
<svg viewBox="0 0 59 32" xmlns="http://www.w3.org/2000/svg">
<path d="m30.651 24.967c-0.1681 0.1466-0.3449 0.2847-0.5034 0.4397-1.5706 1.5423-3.1433 3.0803-4.7021 4.6374-0.2996 0.2995-0.5648 0.4132-0.9971 0.2475-5.821-2.2199-9.3168-6.3368-10.166-12.427-1.1103-7.9321 4.5705-15.351 12.596-16.676 1.5879-0.26047 3.2067-0.28232 4.8012-0.06479 0.0173 0.23261-0.1671 0.30908-0.2803 0.41954-1.1383 1.127-2.2863 2.2411-3.4128 3.3787-0.2282 0.22868-0.5207 0.38479-0.8397 0.44823-4.5943 1.0855-7.4832 3.9013-8.5763 8.4111-1.0672 4.4005 1.0877 9.2407 5.0125 11.555 0.2825 0.1668 0.4474 0.1424 0.6554-0.0871 0.3461-0.3813 0.719-0.7435 1.078-1.1046 0.056-0.2602 0.3007-0.3643 0.4668-0.5311 1.7721-1.7546 3.5479-3.5054 5.3272-5.2523 0.0891-0.0813 0.1723-0.1686 0.2491-0.2613 0.1261-0.1646 0.277-0.3473 0.0959-0.5459-0.1811-0.1987-0.3805-0.0839-0.553 0.0467-0.2156 0.1668-0.4366 0.3346-0.6468 0.5194-0.6226 0.5466-1.3353 0.9844-2.1074 1.2948-2.1678 0.9177-4.2892-0.1572-5.3575-1.8195-1.1157-1.7377-0.7287-3.3883 0.3234-4.9847 0.3485-0.5103 0.7523-0.9818 1.2041-1.4063 1.2213-1.1864 2.4297-2.3855 3.6403-3.5826 0.1775-0.18685 0.3811-0.34779 0.6047-0.47796 1.7021-1.6782 3.415-3.3447 5.0966-5.042 0.345-0.34839 0.6242-0.40043 1.078-0.22306 5.3715 2.1158 8.7401 5.9289 9.7879 11.535 1.5868 8.4876-4.41 16.293-12.737 17.51-1.3844 0.221-2.7941 0.2421-4.1847 0.0627-0.056-0.1859 0.1014-0.2496 0.1898-0.3367 1.2468-1.2342 2.4954-2.4667 3.7459-3.6973 0.1696-0.1698 0.3832-0.2903 0.6176-0.3484 4.4736-1.1779 7.7183-4.6809 8.2357-9.2014 0.5196-4.4749-1.2257-8.0192-5.0222-10.568-0.2232-0.14976-0.373-0.16676-0.5671 0.0478-0.3675 0.40574-0.7642 0.78705-1.1491 1.179-0.0797 0.38662-0.4053 0.59268-0.6715 0.81998-1.3259 1.1301-2.4998 2.411-3.7546 3.6113-0.539 0.5119-1.0693 1.0239-1.5738 1.5624-0.2005 0.2124-0.5455 0.495-0.263 0.7796 0.2824 0.2847 0.5702-0.0542 0.7847-0.2496 0.705-0.6373 1.4574-1.2055 2.3327-1.606 2.6949-1.2289 5.0665 0.2656 5.987 2.4047 0.4593 1.0622 0.3849 2.1711-0.07 3.2385-0.4004 0.9301-0.9791 1.7755-1.7043 2.4897-1.1599 1.1482-2.3273 2.2921-3.4893 3.4371-0.1644 0.1752-0.3617 0.3174-0.5811 0.4185z" fill="#24B8FE"/>
<path d="m5.4458 1.4999c1.0338 0.01062 1.6385 1.0462 1.1286 1.9841-0.8171 1.5061-1.5436 3.0484-2.0535 4.682-2.1861 7.0102-1.5314 13.754 1.964 20.232 0.48185 0.8912 0.2738 1.743-0.52497 2.0755-0.69313 0.2889-1.3679 0.0329-1.7819-0.7-1.2617-2.2172-2.2008-4.5981-2.7898-7.0728-1.6708-7.1016-0.76104-13.869 2.7294-20.303 0.28997-0.53638 0.6705-0.90495 1.328-0.89751z" fill="#24B8FE"/>
<path d="m58.271 14.94c-0.014 5.9406-1.1966 10.465-3.5206 14.702-0.3525 0.6373-0.8689 0.9336-1.4607 0.8497-0.2852-0.0407-0.55-0.1694-0.7562-0.3677-0.2063-0.1983-0.3435-0.4559-0.3918-0.7358-0.0722-0.376 0.0711-0.6979 0.249-1.0186 1.4873-2.6463 2.4736-5.5371 2.9105-8.5312 0.8117-5.6422-0.1153-11.001-2.862-16.038-0.1983-0.36326-0.3924-0.72439-0.2878-1.162 0.1304-0.54382 0.5293-0.94532 1.0338-1.0292 0.6554-0.10621 1.1501 0.10622 1.4854 0.68934 0.7887 1.3831 1.45 2.8331 1.9759 4.3325 1.0736 3.0547 1.6428 6.1934 1.6245 8.3092z" fill="#24B8FE"/>
<path d="m9.3157 3.6475c1.0651 0 1.6612 1.0473 1.1233 2.0181-0.88437 1.5656-1.5632 3.2356-2.0201 4.9698-1.3654 5.3108-0.78009 10.409 1.756 15.295 0.0948 0.1827 0.2015 0.359 0.2943 0.5417 0.3546 0.7095 0.1444 1.4668-0.50238 1.8194-0.67912 0.3697-1.4574 0.1434-1.8627-0.5661-0.85566-1.484-1.5346-3.0604-2.0233-4.6979-1.8951-6.4182-1.2576-12.58 1.9123-18.485 0.28674-0.53426 0.65971-0.91769 1.3227-0.89539z" fill="#24B8FE"/>
<path d="m53.838 16c-0.0475 4.1222-1.0047 7.9385-2.9698 11.501-0.4474 0.8114-1.2343 1.0855-1.9468 0.6851-0.6813-0.3824-0.8441-1.1631-0.4064-1.9618 1.722-3.1145 2.6268-6.6037 2.632-10.15 0.0053-3.5467-0.8891-7.0385-2.6018-10.158-0.2156-0.38556-0.3719-0.77219-0.2533-1.2162 0.0634-0.24996 0.2022-0.4751 0.3981-0.64576 0.1959-0.17065 0.4397-0.2788 0.6992-0.31018 0.6123-0.07222 1.0844 0.14445 1.3917 0.6819 0.8935 1.5785 1.5985 3.2537 2.1009 4.9921 0.6194 2.1413 0.941 4.3556 0.9562 6.5821z" fill="#24B8FE"/>
<path d="m28.575 7.143c-1.4811 1.487-2.9615 2.9719-4.4412 4.4547-0.8473 0.855-1.521 1.8205-1.7722 3.0112-0.36 1.7079 0.3234 3.0388 1.6353 4.0967 1.2526 1.0101 2.6518 1.163 4.1426 0.5735 1.0133-0.4004 1.8616-1.0419 2.6421-1.7791 0.2371-0.2241 0.5012-0.3505 0.7772-0.1062s0.1789 0.5375-0.0507 0.7616c-2.0014 1.9621-4.0078 3.92-6.0193 5.8737-0.0531 0.0429-0.1102 0.081-0.1703 0.1136-2.1657-1.1683-3.7309-2.8433-4.535-5.1641-1.8487-5.3363 1.7064-11.029 7.3765-11.819 0.1379-0.01313 0.2764-0.0188 0.415-0.01699z" fill="#222"/>
<path d="m30.651 24.967c1.3517-1.3437 2.7132-2.6788 4.0509-4.0362 0.981-0.9963 1.686-2.136 1.9242-3.5433 0.4571-2.6873-2.5871-5.81-5.8921-4.3697-0.9476 0.4131-1.7593 1.0101-2.5128 1.6994-0.2749 0.2507-0.5929 0.6256-0.9637 0.2592-0.3708-0.3665 0.0065-0.6947 0.2674-0.9496 2.0405-1.9926 4.0229-4.0425 6.1314-5.9682 1.714 0.95594 3.0819 2.2379 3.9701 3.9831 2.7348 5.3723-0.5562 11.843-6.5626 12.904-0.1371 0.0151-0.2749 0.0222-0.4128 0.0213z" fill="#222"/>
<path d="m9.4537 16.075c0.03234-3.4148 0.84403-6.5704 2.4793-9.5136 0.3449-0.61711 0.7944-0.84972 1.4412-0.77537 0.2683 0.03374 0.5194 0.14825 0.7191 0.32791 0.1997 0.17965 0.3382 0.41567 0.3966 0.67582 0.0981 0.37281-0.0129 0.70739-0.1908 1.0292-1.4047 2.5031-2.1455 5.315-2.1538 8.1753-0.0083 2.8602 0.7162 5.6762 2.1064 8.1871 0.4452 0.8137 0.2759 1.6113-0.4312 1.9873s-1.4596 0.0999-1.9048-0.6967c-1.6069-2.8795-2.4536-6.1108-2.462-9.3969z" fill="#24B8FE"/>
<path d="m49.398 15.584c-0.0226 3.7409-0.8074 6.8657-2.4039 9.7888-0.3945 0.7243-1.037 1.0111-1.715 0.7806-0.7966-0.2708-1.1275-1.1492-0.6996-1.9384 0.861-1.5584 1.4719-3.2388 1.811-4.9815 0.7481-3.9462 0.166-7.6931-1.7463-11.241-0.4635-0.86247-0.2404-1.7069 0.539-2.0383 0.3132-0.13391 0.6664-0.14554 0.988-0.03254 0.3216 0.11299 0.5877 0.34217 0.7442 0.64115 1.1689 2.074 1.9402 4.3423 2.2756 6.6915 0.1326 0.9145 0.2232 1.8311 0.207 2.3293z" fill="#24B8FE"/>
</svg>
